X: 29740
T: Nyth Y Gog
R: hornpipe
M: 4/4
K: Eminor
|:EF|GFGF E2 ge|dBAG FAGF|GFGA BABc|d2 A2 A2 F2|
GFGF E2 ge|dBAG FAGF|GFGA BcBA|G2 E2 E2:|
|:B2|e^def egfe|d2 B2 B2 BA|GAcA GAcA|d2 A2 A2 B2|
e^def egfe|d2 B2 B2 BA|GFGA BcBA|G2 E2 E2:|
|:GA|BGEG BGEG|BGBG E2 FG|GFDF GFDF|GFGF D2 EF|
GFGF E2 ge|dBAG FAGF|GFGA BcBA|G2 E2 E2:|

